X:1
T:When the Bridegroom Comes
T:When the Bridegroom Comes
T:Barney Elliott Warren
T:Barney Elliott Warren, 1907
T:Public Domain Courtesy of the Cyber Hymnal™
T:Public Domain Courtesy of the Cyber Hymnal™
C:Barney Elliott Warren
Z:Public Domain
Z:Courtesy of the Cyber Hymnal™
%%score ( 1 2 ) ( 3 4 )
L:1/8
Q:1/4=113
M:4/4
K:G
V:1 treble 
V:2 treble 
V:3 bass 
V:4 bass 
V:1
 [DG]>[DA] | [GB]2 [GB]2 [Gd]2 [Gc]>[Gc] | [FB]2 [FA]2 G2 [GB]2 | [FA][FA][FA][FA] [Fd]2 [Ac]2 | %4
w: 1.~Pre- cious|soul, pre- pare for the|mid- night call, “Be|read- y when the Bride- groom|
w: 2.~Like the|vir- gins wise fill your|lamps with oil, Be|read- y when the Bride- groom|
w: 3.~Then a-|vail your- self of a|full sup- ply, Be|read- y when the Bride- groom|
w: 4.~Then a-|wake, dear soul, you’re in|sin’s dark night, Be|read- y when the Bride- groom|
w: 5.~Do not|sleep, pour soul, till your|lamp goes out— Be|read- y when the Bride- groom|
 [GB]6 [GB]>[Gc] | [Gd]2 [Gd]2 [Gc]2 ([Gc]>[Gc]) | [GB]2 [GB]2 [EA]2 [EA]2 | %7
w: comes”; For the|sol- emn change is~a- *|wait- ing all, Be|
w: comes; Let not|sin your faith- ful *|ef- forts foil, Be|
w: comes; Nev- er|i- dle sit till~your *|lamp burns dry, Be|
w: comes; Let your|lamp burn bright with~a *|clear, good light, Be|
w: comes; Till the|Lord re- turns with~a *|might- y shout, Be|
 [DG][DG][DG][DG] [GB]2 [FA]2 | G6 z2 ||"^Refrain" [Gd]3 [GB] [Ge][Gd] G>[GA] | [FB]2 [FA]2 [GB]4 | %11
w: read- y when the Bride- groom|comes.|||
w: read- y when the Bride- groom|comes.|||
w: read- y when the Bride- groom|comes.|Oh, be read- y when the|Bride- groom comes!|
w: read- y when the Bride- groom|comes.|||
w: read- y when the Bride- groom|comes.|||
 [Gd]3 [GB] [Ge][Gd] [DG]>[DA] | [GB]2 G2 [FA]2 [DG][DA] | [GB]2 [GB]2 [Gd][Gd][=Fd][Fd] | %14
w: |||
w: |||
w: Oh, be read- y when the|Bride- groom comes! Will your|lamp be burn- ing at the|
w: |||
w: |||
 [Ec]2 [Ec]2 [Ge][Ge] [Ge]2 | [Gd][Gd][Gd][Ac] [GB]2 [FA]2 | [DG]6 |] %17
w: |||
w: |||
w: Lord’s re- turn- ing? Be|read- y when the Bride- groom|comes.|
w: |||
w: |||
V:2
 x2 | x8 | x4 G2 x2 | x8 | x8 | x8 | x8 | x8 | G6 x2 || x6 G3/2 x/ | x8 | x8 | x2 G2 x4 | x8 | x8 | %15
 x8 | x6 |] %17
V:3
 [G,B,]>[G,C] | [G,D]2 [G,D]2 [G,B,]2 [C,E]>[C,C] | [D,D]2 [D,C]2 [G,B,]2 [G,,D]2 | %3
 [D,D][D,D][D,D][D,D] [D,A,]2 [D,D]2 | [G,D]6 G,>[G,A,] | [G,B,]2 [G,B,]2 [G,E]2 ([G,E]>[G,E]) | %6
 [G,D]2 [G,D]2 [C,C]2 [C,C]2 | [D,B,][D,B,][D,B,][D,B,] [D,D]2 [D,C]2 | [G,,G,B,]6 z2 || %9
 [G,B,]3 [G,D] [G,C][G,B,] [B,,D]>[B,,E] | [D,D]2 [D,D]2 [G,D]4 | %11
 [G,B,]3 [G,D] [G,C][G,B,] [G,B,]>[G,C] | [G,D]2 [E,^C]2 [D,D]2 [G,B,][G,C] | %13
 [G,D]2 [G,D]2 [G,B,][G,B,][B,,G,][B,,G,] | [C,G,]2 [C,G,]2 [C,C][C,C] [C,C]2 | %15
 [D,B,][D,B,][D,B,][D,D] [D,D]2 [D,C]2 | [G,,G,B,]6 |] %17
V:4
 x2 | x8 | x8 | x8 | x6 G,3/2 x/ | x8 | x8 | x8 | x8 || x8 | x8 | x8 | x8 | x8 | x8 | x8 | x6 |] %17

